app/assets/images/heroicons/mini/bold.svg

<svg width="20" height="20" viewBox="0 0 20 20" fill="none" xmlns="http://www.w3.org/2000/svg">
<path fill-rule="evenodd" clip-rule="evenodd" d="M4 3C4 2.44772 4.44772 2 5 2H11C13.4853 2 15.5 4.01472 15.5 6.5C15.5 7.69501 15.0342 8.78123 14.2742 9.58698C15.3283 10.4582 16 11.7757 16 13.25C16 15.8734 13.8734 18 11.25 18H5C4.44772 18 4 17.5523 4 17V3ZM6.5 8.5V4.5H11C12.1046 4.5 13 5.39543 13 6.5C13 7.60457 12.1046 8.5 11 8.5H6.5ZM6.5 11V15.5H11.25C12.4926 15.5 13.5 14.4926 13.5 13.25C13.5 12.0074 12.4926 11 11.25 11H6.5Z" fill="black"/>
</svg>

<svg xmlns="http://www.w3.org/2000/svg" viewBox="0 0 20 20" fill="currentColor" aria-hidden="true" data-slot="icon">
  <path fill-rule="evenodd" d="M4 3a1 1 0 0 1 1-1h6a4.5 4.5 0 0 1 3.274 7.587A4.75 4.75 0 0 1 11.25 18H5a1 1 0 0 1-1-1V3Zm2.5 5.5v-4H11a2 2 0 1 1 0 4H6.5Zm0 2.5v4.5h4.75a2.25 2.25 0 0 0 0-4.5H6.5Z" clip-rule="evenodd"/>
</svg>
